!!!OTL: 766. Lied des Einsiedels (1669).
!!!ARE: Europa, Mitteleuropa, Deutschland
!!!SCT: B0766
!!!TXL: @@DE
!!!YEM: Copyright 1995, estate of Helmut Schaffrath.
**kern	**text
*ICvox	*
*Ivox	*
*clefG2	*
*M4/4	*
*met(c)	*
*k[f#c#]	*
*D:	*
{4d	Komm,
=1	=1
4a	Troſt
4f#	der
4d	Nacht,
4a	o
=2	=2
4b	Nach-
4b	-ti-
4a;}	-gall!
{4a	Laß
=3	=3
4b	dei-
4cc#	-ne
4dd	Stimm'
4cc#	mit
=4	=4
4b/	Freu-
4b/	-den-
4a;}	-ſchall
{4f#	auf's
=5	=5
4b	lieb-
4a	-lich-
4g	-ſte
4f#	er-
=6	=6
2e	-klin-
4d;}	-gen!
{4d	Komm,
=7	=7
4a	komm
4f#	und
4d	lob
4a	den
=8	=8
4b	Schö-
4b	-pfer
4a;}	dein,
{4a	weil
=9	=9
4b	an-
4cc#	-dre
4dd	Vö-
4cc#	-gel
=10	=10
4b/	ſchla-
4b/	-fen
4a;}	ſein
{4f#	und
=11	=11
4b	nicht
4a	mehr
4g	mö-
4f#	-gen
=12	=12
2e	ſin-
4d;	-gen.
4r}	.
=13	=13
{2a	Laß
2f#	dein
=14	=14
2a	Stimmlein
2f#;}	.
=15	=15
{4g	laut
4f#	er-
4e	-ſchal-
4f#	-len,
=16	=16
4g	denn
4f#	vor
4e	al-
4f#}	-len
=17	=17
{4g	kannſt
4f#	du
2e	lo-
=18	=18
2d;}	-ben
{4dd	Gott
4cc#	im
=19	=19
4b	Him-
4a	-mel,
4g	hoch
4f#	da
=20	=20
2e	dro-
4d;}	-ben.
==	==
!!!AGN: Trost -, Tageszeiten - Lied, Abend, religioes
!!!GTL: Religioese Lieder
!!!ONB: ESAC (Essen Associative Code) Database: BOEHME
!!!AMT: simple quadruple
!!!AIN: vox
!!!EED: Helmut Schaffrath
!!!EEV: 1.0
!!Choralmel. "Wie ſchön leuchtet der Morgenſtern" von Phil. Nicolai 1599.
!!@@COMMENT:"Gedicht von Hans Jakob Chriſtöffel von Grimmelsbauſen, gedruckt in deſſen Aben-
!!theuerlichem Simpliciſſimus 1669. Nach einer ſpätern Ausgabe von 1713 Simpliciſſimi
!!Lebenswandel. J. Bd. S. 28 in Wunderhorn J. 1806. S. 198 überſchrieben: Schall der Nacht!
!!Goethe: Wird geſungen herʒerfreulich ſein"."
!!@@END:
!!!Text: H. J. Chriſtöffel
!!!URL-scan: https://archive.org/details/BoehmeVtLieder1895/page/n611/mode/2up
!!!ENC: Anna Maria Matuszewska
!!!EEV: 2024/19/07
*-	*-
